svgs/duotone/atom-simple.svg

<svg xmlns="http://www.w3.org/2000/svg" viewBox="0 0 448 512"><!-- Font Awesome Pro 6.0.0-alpha2 by @fontawesome - https://fontawesome.com License - https://fontawesome.com/license (Commercial License) --><defs><style>.fa-secondary{opacity:.4}</style></defs><path d="M423.135 56.865C379.133 12.863 300.254 31.615 224 79.117C147.621 31.615 68.867 12.863 24.866 56.865C-19.136 100.869 -0.384 179.623 47.117 256.002C-0.384 332.381 -19.136 411.137 24.866 455.139C66.117 496.391 140.371 484.516 224 432.512C307.254 484.391 381.758 496.516 423.135 455.139C467.137 411.137 448.385 332.381 400.883 256.002C448.385 179.623 467.137 100.869 423.135 56.865ZM70.117 102.119C79.434 92.803 109.789 89.576 167.373 119.994C138.371 143.746 111.869 170.248 88.244 199.123C63.367 151.871 57.742 114.494 70.117 102.119ZM70.117 409.887C57.742 397.51 63.367 360.133 88.244 312.881C116.996 347.758 141.246 370.258 167.373 391.76C119.996 416.637 82.494 422.262 70.117 409.887ZM224 355.008C179.123 320.756 150.996 290.004 125.121 256.002C153.371 218.5 186.623 184.998 224 156.621C261.377 184.998 294.629 218.5 323.004 256.002C288.754 300.879 258.002 329.006 224 355.008ZM377.883 409.887C365.506 422.262 328.004 416.637 280.627 391.76C306.629 370.258 330.879 347.883 359.756 312.881C384.633 360.133 390.258 397.51 377.883 409.887ZM359.756 199.123C336.131 170.248 309.629 143.746 280.627 119.994C337.961 89.709 368.522 92.758 377.883 102.119C390.258 114.494 384.633 151.871 359.756 199.123Z" class="fa-secondary"/><path d="M256.004 256.002C256.004 273.629 241.627 288.004 224.002 288.004S192 273.629 192 256.002C192 238.377 206.377 224 224.002 224S256.004 238.377 256.004 256.002Z" class="fa-primary"/></svg>

<svg xmlns="http://www.w3.org/2000/svg" viewBox="0 0 448 512"><!--! Font Awesome Pro 6.0.0-alpha3 by @fontawesome - https://fontawesome.com License - https://fontawesome.com/license (Commercial License) --><defs><style>.fa-secondary{opacity:.4}</style></defs><path class="fa-primary" d="M255.1 255.1c0 17.63-14.38 32-32 32s-32-14.37-32-32c0-17.62 14.38-32.03 32-32.03S255.1 238.3 255.1 255.1z"/><path class="fa-secondary" d="M423.1 56.87C379.1 12.86 300.3 31.62 224 79.12C147.6 31.62 68.87 12.86 24.87 56.87C-19.14 100.9-.3849 179.6 47.12 256c-47.5 76.38-66.25 155.1-22.25 199.1C66.12 496.4 140.4 484.5 224 432.5c83.25 51.88 157.8 64 199.1 22.63c44-44 25.25-122.8-22.25-199.1C448.4 179.6 467.1 100.9 423.1 56.87zM70.12 102.1c9.316-9.316 39.67-12.54 97.26 17.88c-29 23.75-55.5 50.25-79.13 79.13C63.37 151.9 57.74 114.5 70.12 102.1zM70.12 409.9c-12.38-12.38-6.751-49.75 18.13-97.01c28.75 34.88 53 57.38 79.13 78.88C119.1 416.6 82.49 422.3 70.12 409.9zM224 355c-44.88-34.25-73-65-98.88-99.01C153.4 218.5 186.6 184.1 224 156.6c37.38 28.38 70.63 61.88 99 99.38C288.8 300.9 258 329 224 355zM377.9 409.9c-12.38 12.38-49.88 6.75-97.26-18.13c26-21.5 50.25-43.88 79.13-78.88C384.6 360.1 390.3 397.5 377.9 409.9zM359.8 199.1c-23.62-28.88-50.13-55.38-79.13-79.13c57.33-30.29 87.89-27.24 97.26-17.88C390.3 114.5 384.6 151.9 359.8 199.1z"/></svg>
